public/avatar/shoe/141.svg

<svg xmlns:xlink="http://www.w3.org/1999/xlink" height="38.3" width="36.05" xmlns="http://www.w3.org/2000/svg"><use height="19.5" transform="translate(8.15 10.6)" width="23.9" xlink:href="#a"/><defs><g id="a" fill-rule="evenodd"><path d="m6.05-.3.7 2.9.75.85q.6 1.05.05 2.45l.55 1.4q.4 1.65-.3 3.2-6.6 5.05-13.15 4.7-6.25.35-9.25-1.55-2-1.95-.25-4.35l.9-.95q-.35-1.6 1.15-2.5-.3-.95 1.75-2.45h1.9l.55-.5q-1.15-.6.3-1.8l1.15-.9h1l.65-.3q-.9-1.7 1.8-2.6l.4.1 1.4-1.2 2.65-.45q3.05.3 5.3 3.95" fill="#1c140c" transform="translate(15.65 4.25)"/><path d="M-7.6 10.05q-3.5-.2-5.75-1.25Q-13.6 7.45-12 6l1.65-1.1q2.1-.9 5.3-4.8l2.8-3.5Q2.55-5 5.15-.5q1.5 1.5 1 6.7Q-.5 10.45-7.6 10.05" fill="#dd994f" transform="translate(15.65 4.25)"/><path d="M1.35 8.65q3.5-1.2 5.4-2.85 1.5 1.25.45 4.3-6.7 4.8-14.6 4.4-3.9-.2-6.55-1.4L-15 11.05q.2-1.45 1-1.95l.7-.3q7.7 2.25 14.65-.15" fill="#a05d05" transform="translate(15.65 4.25)"/><path d="M-11.9 5.8q-.85-.1.1-1.15l1.1-1.1q6.8.05 9 6.25-3.1 1.25-4.6.35-1-2.95-3.4-3.95l-2.2-.4" fill="#a05d05" transform="translate(15.65 4.25)"/><path d="M-8.1 2.65q-.7-.4.2-1.3l1.05-.8Q-.2.5 3.9 7.65q-2.6 1.5-4.7 1.5Q-2.95 5-5.7 3.45l-2.4-.8" fill="#a05d05" transform="translate(15.65 4.25)"/><path d="M-3.85-2.2 0-1.9q4.4 1.25 7.05 6Q8.15 5.85 5.1 7 .9-.1-5.1-.1v-.95Q-4.9-2-3.85-2.2" fill="#a05d05" transform="translate(15.65 4.25)"/><path d="M-11.85 5.5q-.35-.2.35-.85l.85-.65Q-5.4 3.55-2 9.7q-1.4 1-3.55.9-1.25-3.75-3.9-4.8l-2.4-.3" fill="#ffff1c" transform="translate(15.65 4.25)"/><path d="M3.3 7.9v.4q-.45.6-3.15 1.45Q-2.3 4.8-5.3 3.15l-2.5-.65q-.45-.2.3-.85l.75-.65Q-1.5.7 3.3 7.9" fill="#ffff1c" transform="translate(15.65 4.25)"/><path d="M6.45 5.9q1.1 2.1.2 4.1Q0 14.3-7.65 13.95q-3.85-.2-6.3-1.25-.95-1.15-.3-2.6l.8-1.2q8.05 2 14.8-.3 3.35-1.15 5.1-2.7" fill="#ffff1c" transform="translate(15.65 4.25)"/><path d="M-4.8-.2q-.4-.3.15-1.05l.6-.65q7.4-.35 10.5 5.6 1.2 1.5-.95 3.15Q2.15 1.7-1.7.25L-4.8-.2" fill="#ffff1c" transform="translate(15.65 4.25)"/><path d="M1 9.2q-7.45 2.2-14.95.1l.65-.5q2.7.9 6.5.95Q.8 9.9 6.45 5.9l.5.6Q4.7 8.05 1 9.2" fill="#a05d05" transform="translate(15.65 4.25)"/><path d="M-6.8 13.45q-3.05 0-6.95-1.45-.5-.4-.3-1.35l.3-.85q.1 2.1 8.1 3.6l-1.15.05" fill="#991" transform="translate(15.65 4.25)"/><path d="M3.05 8.5Q.95 13-2.5 13.6l-3.3.2q4.2-.5 7.2-4.7l1.65-.6" fill="#ffffcf" transform="translate(15.65 4.25)"/><path d="M3.05 8.5q.75 0 3.9-2 .4.6-.3 3.5-2.85 2.3-9.15 3.6 4.2-1.1 5.55-5.1M-6.8 5.2q1.45.4 4.5 4.2l-3.6.05.05-.8-.95-3.45m6.6 3.65-.05-.15-1.4-2.2q1.45-.3-1.8-4.75 2.9 1.2 6.55 5.95L-.2 8.85m5.65-2.4L1.1 1.5q2.1-.2-2.6-3.35 7.1 3.05 7.7 6 .4 1.45-.75 2.3" fill="#e6cf1c" transform="translate(15.65 4.25)"/><path d="m7 7.05.05.85q.05 1.55-.4 2.1l-1.05.6Q6.95 8.2 7 7.05M3.75 1.1Q8.4 4.5 5.5 6.45L4 4.5q2.2.45-.25-3.4M.7 5.1l2.15 2.5Q1.9 8.2-.2 8.85L-.9 7.6q2.85.05 1.6-2.5m-4.4 2.85q.4.15 1.4 1.45l-3.55.3-.05-.25q1.9-.25 2.2-1.5" fill="#cd7c00" transform="translate(15.65 4.25)"/><path d="m-4.75-.45.95-1.4q.2 1.15 2.45 2l-3.4-.6m-2 1.45q-.25.6 2.3 2.5Q-6 2.4-7 2.3l-.8.2L-6.75 1m-3.9 3q-.15.7 4.4 3.45l-.5.3Q-8.35 6-10.15 5.4l-1.5-.2 1-1.2" fill="#ffffcf" transform="translate(15.65 4.25)"/></g></defs></svg>

<?xml version="1.0" encoding="UTF-8" standalone="no"?>
<svg xmlns:xlink="http://www.w3.org/1999/xlink" height="38.3px" width="36.05px" xmlns="http://www.w3.org/2000/svg">
  <g transform="matrix(1.0, 0.0, 0.0, 1.0, 23.8, 14.85)">
    <use height="19.5" transform="matrix(1.0, 0.0, 0.0, 1.0, -15.65, -4.25)" width="23.9" xlink:href="#shape0"/>
  </g>
  <defs>
    <g id="shape0" transform="matrix(1.0, 0.0, 0.0, 1.0, 15.65, 4.25)">
      <path d="M6.05 -0.3 L6.75 2.6 7.5 3.45 Q8.1 4.5 7.55 5.9 L8.1 7.3 Q8.5 8.95 7.8 10.5 1.2 15.55 -5.35 15.2 -11.6 15.55 -14.6 13.65 -16.6 11.7 -14.85 9.3 L-13.95 8.35 Q-14.3 6.75 -12.8 5.85 -13.1 4.9 -11.05 3.4 L-9.15 3.4 -8.6 2.9 Q-9.75 2.3 -8.3 1.1 L-7.15 0.2 -6.15 0.2 -5.5 -0.1 Q-6.4 -1.8 -3.7 -2.7 L-3.3 -2.6 -1.9 -3.8 0.75 -4.25 Q3.8 -3.95 6.05 -0.3" fill="#1c140c" fill-rule="evenodd" stroke="none"/>
      <path d="M-7.6 10.05 Q-11.1 9.85 -13.35 8.8 -13.6 7.45 -12.0 6.0 L-10.35 4.9 Q-8.25 4.0 -5.05 0.1 L-2.25 -3.4 Q2.55 -5.0 5.15 -0.5 6.65 1.0 6.15 6.2 -0.5 10.45 -7.6 10.05" fill="#dd994f" fill-rule="evenodd" stroke="none"/>
      <path d="M1.35 8.65 Q4.85 7.45 6.75 5.8 8.25 7.05 7.2 10.1 0.5 14.9 -7.4 14.5 -11.3 14.3 -13.95 13.1 L-15.0 11.05 Q-14.8 9.6 -14.0 9.1 L-13.3 8.8 Q-5.6 11.05 1.35 8.65" fill="#a05d05" fill-rule="evenodd" stroke="none"/>
      <path d="M-11.9 5.8 Q-12.75 5.7 -11.8 4.65 L-10.7 3.55 Q-3.9 3.6 -1.7 9.8 -4.8 11.05 -6.3 10.15 -7.3 7.2 -9.7 6.2 L-11.9 5.8" fill="#a05d05" fill-rule="evenodd" stroke="none"/>
      <path d="M-8.1 2.65 Q-8.8 2.25 -7.9 1.35 L-6.85 0.55 Q-0.2 0.5 3.9 7.65 1.3 9.15 -0.8 9.15 -2.95 5.0 -5.7 3.45 L-8.1 2.65" fill="#a05d05" fill-rule="evenodd" stroke="none"/>
      <path d="M-3.85 -2.2 L0.0 -1.9 Q4.4 -0.65 7.05 4.1 8.15 5.85 5.1 7.0 0.9 -0.1 -5.1 -0.1 L-5.1 -1.05 Q-4.9 -2.0 -3.85 -2.2" fill="#a05d05" fill-rule="evenodd" stroke="none"/>
      <path d="M-11.85 5.5 Q-12.2 5.3 -11.5 4.65 L-10.65 4.0 Q-5.4 3.55 -2.0 9.7 -3.4 10.7 -5.55 10.6 -6.8 6.85 -9.45 5.8 L-11.85 5.5" fill="#ffff1c" fill-rule="evenodd" stroke="none"/>
      <path d="M3.3 7.9 L3.3 8.3 Q2.85 8.9 0.15 9.75 -2.3 4.8 -5.3 3.15 L-7.8 2.5 Q-8.25 2.3 -7.5 1.65 L-6.75 1.0 Q-1.5 0.7 3.3 7.9" fill="#ffff1c" fill-rule="evenodd" stroke="none"/>
      <path d="M6.45 5.9 Q7.55 8.0 6.65 10.0 0.0 14.3 -7.65 13.95 -11.5 13.75 -13.95 12.7 -14.9 11.55 -14.25 10.1 L-13.45 8.9 Q-5.4 10.9 1.35 8.6 4.7 7.45 6.45 5.9" fill="#ffff1c" fill-rule="evenodd" stroke="none"/>
      <path d="M-4.8 -0.2 Q-5.2 -0.5 -4.65 -1.25 L-4.05 -1.9 Q3.35 -2.25 6.45 3.7 7.65 5.2 5.5 6.85 2.15 1.7 -1.7 0.25 L-4.8 -0.2" fill="#ffff1c" fill-rule="evenodd" stroke="none"/>
      <path d="M1.0 9.2 Q-6.45 11.4 -13.95 9.3 L-13.3 8.8 Q-10.6 9.7 -6.8 9.75 0.8 9.9 6.45 5.9 L6.95 6.5 Q4.7 8.05 1.0 9.2" fill="#a05d05" fill-rule="evenodd" stroke="none"/>
      <path d="M-6.8 13.45 Q-9.85 13.45 -13.75 12.0 -14.25 11.6 -14.05 10.65 L-13.75 9.8 Q-13.65 11.9 -5.65 13.4 L-6.8 13.45" fill="#999911" fill-rule="evenodd" stroke="none"/>
      <path d="M3.05 8.5 Q0.95 13.0 -2.5 13.6 L-5.8 13.8 Q-1.6 13.3 1.4 9.1 L3.05 8.5" fill="#ffffcf" fill-rule="evenodd" stroke="none"/>
      <path d="M3.05 8.5 Q3.8 8.5 6.95 6.5 7.35 7.1 6.65 10.0 3.8 12.3 -2.5 13.6 1.7 12.5 3.05 8.5" fill="#e6cf1c" fill-rule="evenodd" stroke="none"/>
      <path d="M-6.8 5.2 Q-5.35 5.6 -2.3 9.4 L-5.9 9.45 -5.85 8.65 -6.8 5.2" fill="#e6cf1c" fill-rule="evenodd" stroke="none"/>
      <path d="M-0.2 8.85 L-0.25 8.7 -1.65 6.5 Q-0.2 6.2 -3.45 1.75 -0.55 2.95 3.1 7.7 L-0.2 8.85" fill="#e6cf1c" fill-rule="evenodd" stroke="none"/>
      <path d="M5.45 6.45 L1.1 1.5 Q3.2 1.3 -1.5 -1.85 5.6 1.2 6.2 4.15 6.6 5.6 5.45 6.45" fill="#e6cf1c" fill-rule="evenodd" stroke="none"/>
      <path d="M7.0 7.05 L7.05 7.9 Q7.1 9.45 6.65 10.0 L5.6 10.6 Q6.95 8.2 7.0 7.05" fill="#cd7c00" fill-rule="evenodd" stroke="none"/>
      <path d="M3.75 1.1 Q8.4 4.5 5.5 6.45 L4.0 4.5 Q6.2 4.95 3.75 1.1" fill="#cd7c00" fill-rule="evenodd" stroke="none"/>
      <path d="M0.7 5.1 L2.85 7.6 Q1.9 8.2 -0.2 8.85 L-0.9 7.6 Q1.95 7.65 0.7 5.1" fill="#cd7c00" fill-rule="evenodd" stroke="none"/>
      <path d="M-3.7 7.95 Q-3.3 8.1 -2.3 9.4 L-5.85 9.7 -5.9 9.45 Q-4.0 9.2 -3.7 7.95" fill="#cd7c00" fill-rule="evenodd" stroke="none"/>
      <path d="M-4.75 -0.45 L-3.8 -1.85 Q-3.6 -0.7 -1.35 0.15 L-4.75 -0.45" fill="#ffffcf" fill-rule="evenodd" stroke="none"/>
      <path d="M-6.75 1.0 Q-7.0 1.6 -4.45 3.5 -6.0 2.4 -7.0 2.3 L-7.8 2.5 -6.75 1.0" fill="#ffffcf" fill-rule="evenodd" stroke="none"/>
      <path d="M-10.65 4.0 Q-10.8 4.7 -6.25 7.45 L-6.75 7.75 Q-8.35 6.0 -10.15 5.4 L-11.65 5.2 -10.65 4.0" fill="#ffffcf" fill-rule="evenodd" stroke="none"/>
    </g>
  </defs>
</svg>
